X:1
T:What Will You Do?
T:What Will You Do?
T:Adam Geibel
T:Ophelia Guyon Burroughs, 1890
T:Public Domain Courtesy of the Cyber Hymnal™
T:Public Domain Courtesy of the Cyber Hymnal™
C:Adam Geibel
Z:Public Domain
Z:Courtesy of the Cyber Hymnal™
%%score ( 1 2 ) ( 3 4 )
L:1/8
Q:1/4=102
M:4/4
K:Ab
V:1 treble 
V:2 treble 
V:3 bass 
V:4 bass 
V:1
 [Ec]2 [Ee]>[Ec] [EA]2 [CE]>[CE] | [DF]2 ([FA]>[EG]) [DF]2 [CE]2 | %2
w: 1.~What will you do with the|King called * Je- sus?|
w: 2.~What will you do for the|King called * Je- sus,|
w: 3.~What will you do with the|King called * Je- sus?|
 [DF]2 [DF]>[EG] [EA]2 [EA]>[EB] | [Ec]2 [Ee]2 [EB]4 | [Ec]2 [Ee]>[Ec] [EA]2 [CE]>[CE] | %5
w: Ma- ny are wait- ing to|hear you say—|Some have des- pised Him, re-|
w: He who for you left His|throne a- bove;|Here ’mid the low- ly and|
w: Who will sub- mit to His|gen- tle sway?|Where are the hearts rea- dy|
 [DF]2 [FA]>[EG] [DF]2 [CE]2 | [DF]2 [DF]>[EG] (Ac) [Ee]>[Fd] | [Ec]2 [DB]2 [CA]4 | %8
w: ject- ing His mer- cy;|What will you do * with your|king to- day?|
w: sin- ful to la- bor,|Dai- ly un- fold- * ing His|Fa- ther’s love.|
w: now to en- throne Him?|Who will His kind * co- m-|mands o- bey?|
 [=Ec]2 [Ec]>[Ec] [Fc]2 [FA]>[Fc] | [Ge]2 [Ge]>[Ge] [Ec]2 [EA]2 | %10
w: What can you wit- ness con-|cern- ing His good- ness,|
w: Look on the fields white al-|rea- dy to har- vest,|
w: Come with your oint- ments most|cost- ly and pre- cious,|
 [=Ec]2 [Ec]>[Ec] [Fc]2 [FA]>[Fc] | [A=d]2 [Ac]>[Ad] !fermata![Ge]4 | %12
w: Who died to save you from|sin’s bit- ter thrall?|
w: Who now is will- ing to|toil with the few?|
w: Pour out your gifts at the|dear Sav- ior’s feet;|
 [Ec]2 [Ee]>[Ec] [EA]2 [CE]>[CE] | [DF]2 [FA]>[EG] [DF]2 [CE]2 | [DF]2 [DF]>[EG] (Ac) [Ee]>[Fd] | %15
w: Who will de- clare Him the|fair- est of thou- sands?|Who now will crown * Him the|
w: What will you do for the|dear Sav- ior Je- sus?|Lo, He is wait- * ing, He|
w: Ren- der to Him all your|loy- al de- vo- tion;|Seek to ex- alt * Him by|
 [Ec]2 [DB]2 [CA]4 ||"^Refrain" [CE]2 E>"^Voices in Unison"F [CE]2 E>F | [CE]2 [CEA]2 A2 G2 | %18
w: Lord of all?|||
w: calls for you!|What will you do with the|King called Je- sus?|
w: prais- es meet.|||
 [B,DE]2 (E>F) [B,DE]2 E>F | [B,DE]2 [DEB]2 B2 A2 | %20
w: ||
w: What, oh, * what will you|do with Je- sus?|
w: ||
"^Voices in Parts" [Ac]2 [Ac]>[Ac] [Ad]2 [Ad]>[Ad] | [Ae]2 [Ae]>[Ae] !fermata![Af]4 | %22
w: ||
w: He waits to bless all who|hum- bly con- fess|
w: ||
 [Fd]2 [Fc]>[FB] [Ae]2 ([CA]>[DB]) | [Ec]2 [EB]2 [EA]4 |] %24
w: ||
w: Faith in His blood and *|right- eous- ness.|
w: ||
V:2
 x8 | x8 | x8 | x8 | x8 | x8 | x4 E2 x2 | x8 | x8 | x8 | x8 | x8 | x8 | x8 | x4 E2 x2 | x8 || %16
 x2 C2 x/ C2 x3/2 | x4 [DE]4 | x2 [B,D]2 x/ [B,D]2 x3/2 | x4 [CE]4 | x8 | x8 | x8 | x8 |] %24
V:3
 A,2 [A,C]>[A,C] [A,C]2 [A,,A,]>[A,,A,] | [D,A,]2 ([D,A,]>[D,A,]) [A,,A,]2 [A,,A,]2 | %2
 [D,A,]2 [D,A,]>[D,B,] [C,A,]2 [C,A,]>[B,,G,] | [A,,A,]2 [C,A,]2 [E,G,]4 | %4
 [A,,A,]2 [A,C]>[A,C] [A,C]2 [A,,A,]>[A,,A,] | [D,A,]2 [D,A,]>[D,A,] [A,,A,]2 [A,,A,]2 | %6
 [D,A,]2 [D,A,]>[D,A,] [C,A,]2 [C,A,]>[D,A,] | [E,A,]2 [E,G,]2 [A,,A,]4 | %8
 [C,G,]2 [C,B,]>[C,B,] [F,A,]2 [F,A,]>[F,A,] | [E,B,]2 [E,D]>[E,D] [A,C]2 [A,C]2 | %10
 [C,G,]2 [C,B,]>[C,B,] [F,A,]2 [F,A,]>[F,A,] | [B,,B,]2 [B,,B,]>[B,,B,] (B,2 !fermata!D2) | %12
 [A,C]2 [A,C]>[A,C] [A,C]2 [A,,A,]>[A,,A,] | [D,A,]2 [D,A,]>[D,A,] [A,,A,]2 [A,,A,]2 | %14
 [D,A,]2 [D,A,]>[D,B,] [C,A,]2 [C,A,]>[D,A,] | [E,A,]2 [E,G,]2 [A,,A,]4 || %16
 .[A,,A,]2 .[E,,E,]2 .[A,,A,]2 .[E,,E,]2 | .[A,,G,]2 .[E,,E,]2 .[B,,B,]2 .[E,,E,]2 | %18
 .[G,,G,]2 .[E,,E,]2 .[G,,G,]2 .[E,,E,]2 | .[G,,G,]2 .[E,,E,]2 .[G,,A,]2 .[E,,E,]2 | %20
 [A,E]2 [_G,E]>[G,E] [F,D]2 [F,D]>[F,D] | [E,C]2 [E,C]>[E,C] !fermata![D,D]4 | %22
 [B,,D]2 [C,E]>[D,D] [E,C]2 ([F,A,]>[F,A,]) | [E,A,]2 [E,D]2 [A,,C]4 |] %24
V:4
 A,2 x6 | x8 | x8 | x8 | x8 | x8 | x8 | x8 | x8 | x8 | x8 | x4 E,4 | x8 | x8 | x8 | x8 || x8 | x8 | %18
 x8 | x8 | x8 | x8 | x8 | x8 |] %24

